X:1
%
T:Grand March of Normal [1]
M:C
L:1/8
S:Steffy (1949, southwestern Pa.)
B:Bayard - Dance to the Fiddle, March to the Fife (1981, No. 254)
K:D
d2 Ad f2 df|a2 {b}a>b a4|a2 fa ab/a/ gf|e2 a>b ag fe|
d2 Ad f2 df|a2 {b}a>b a3g|fa {f}(3gfe d2c2|d2 d>c d2||
Ad|f2 {g}f>g fe dc|B2 B>B B2 Bc| e2 e>f edcB|A2 A>B AGFE|
.d2 Ad f2df|a2 a>b a3g|fa {f}(3gfe d2c2|d2 d>c d2||

